!!!!SEGMENT:pl-wtm--r-1143-1--002_dobrzynski-ignacy-feliks-studium-na-temat-oryginalny-op-62-stesso-tempo.krn
!!!id: 18xx:1749
!!!COM: Dobrzyński, Ignacy Feliks
!!!OTL: Studium na temat oryginalny op. 62 – Stesso tempo
!!!PDT: 1867
!!!SMS-siglum: PL-Wtm
!!!SMS-shelfmark: R 1143/1
!!!NIFC-rismID: 1001057385
!!!URL-scan: http://repozytorium.nifc.pl/skany/pl-wtm-nut--r1143
!!!ONB-nifc: UWAGA: numeracja części zgodna z numerami w źródle. Na podstawie partytury (folder r1143-1)
!!!SMS-variant:
!!!SMS-altvar:
**kern	**dynam	**kern	**dynam	**kern	**dynam	**kern	**dynam
*part4	*part4	*part3	*part3	*part2	*part2	*part1	*part1
*staff4	*	*staff3	*	*staff2	*	*staff1	*
*I"Violoncello	*	*I"Viola.	*	*I"Violino 2do	*	*I"Violino 1o.	*
*I'vlc	*	*I'vla	*	*I'vl 2	*	*I'vl 1	*
*clefF4	*	*clefC3	*	*clefG2	*	*clefG2	*
*k[f#c#g#]	*	*k[f#c#g#]	*	*k[f#c#g#]	*	*k[f#c#g#]	*
*M4/4	*	*M4/4	*	*M4/4	*	*M4/4	*
*met(c)	*	*met(c)	*	*met(c)	*	*met(c)	*
=1	=1	=1	=1	=1	=1	=1	=1
!	!	!	!	!	!	!LO:TX:i:a:t=Steſso tempo	!
!	!	!	!	!	!	!LO:TX:i:a:t=No. 2.	!
8r	.	1ryy	.	(>2e/	p	1ryy	.
(>8c#\L	p	.	.	.	.	.	.
!LO:TX:i:a:t=tranquillo	!	!	!	!LO:TX:i:b:t=ma espressivo	!	!	!
8B\	.	.	.	.	.	.	.
8A\J	.	.	.	.	.	.	.
8G#\L	.	.	.	4f#/	.	.	.
8F#\	.	.	.	.	.	.	.
8E\	.	.	.	4g#/)	.	.	.
8D\J)	.	.	.	.	.	.	.
=2	=2	=2	=2	=2	=2	=2	=2
(>8C#\L	.	1ryy	.	(>4a\	.	1ryy	.
8A\	.	.	.	.	.	.	.
8G#\	.	.	.	4b\	.	.	.
8E\J	.	.	.	.	.	.	.
8A\L	.	.	.	2cc#\)	.	.	.
8e\	.	.	.	.	.	.	.
8c#\	.	.	.	.	.	.	.
8A\J)	.	.	.	.	.	.	.
=3	=3	=3	=3	=3	=3	=3	=3
(>8F#\L	.	1ryy	.	(>2dd\	.	1ryy	.
8A\	.	.	.	.	.	.	.
8G#\	.	.	.	.	.	.	.
8B\J	.	.	.	.	.	.	.
8A\L	.	.	.	4cc#\	.	.	.
8B\	.	.	.	.	.	.	.
8c#\	.	.	.	4a\)	.	.	.
8A\J)	.	.	.	.	.	.	.
=4	=4	=4	=4	=4	=4	=4	=4
(>8G#\L	.	1ryy	.	(>2b^<\	.	1ryy	.
8E\	.	.	.	.	.	.	.
8F#\	.	.	.	.	.	.	.
8G#\J)	.	.	.	.	.	.	.
(>8A'>\L	.	.	.	4a\)	.	.	.
8E'>\J	.	.	.	.	.	.	.
4AA'</)	.	.	.	4r	.	.	.
=5	=5	=5	=5	=5	=5	=5	=5
1r	.	(>2e\	p	1r	.	8r	.
.	.	.	.	.	.	(>8ccc#\L	p
!	!	!LO:TX:i:b:t=ma espreſsivo	!	!	!	!LO:TX:i:b:t=tranquillo	!
.	.	.	.	.	.	8bb\	.
.	.	.	.	.	.	8aa\J	.
.	.	4f#\	.	.	.	8gg#\L	.
.	.	.	.	.	.	8ff#\	.
.	.	4g#\)	.	.	.	8ee\	.
.	.	.	.	.	.	8dd\J)	.
=6	=6	=6	=6	=6	=6	=6	=6
1r	.	(>4a\	.	1r	.	(>8cc#\L	.
.	.	.	.	.	.	8aa\	.
.	.	4b\	.	.	.	8gg#\	.
.	.	.	.	.	.	8ee\J	.
.	.	2cc#\)	.	.	.	8aa\L	.
.	.	.	.	.	.	8eee\	.
.	.	.	.	.	.	8ccc#\	.
.	.	.	.	.	.	8aa\J)	.
!!LO:PB:g=original
=7	=7	=7	=7	=7	=7	=7	=7
1r	.	(>2dd\	.	1r	.	(>8ff#\L	.
.	.	.	.	.	.	8aa\	.
.	.	.	.	.	.	8gg#\	.
.	.	.	.	.	.	8bb\J	.
.	.	4cc#\	.	.	.	8aa\L	.
.	.	.	.	.	.	8bb\	.
.	.	4a\)	.	.	.	8ccc#\	.
.	.	.	.	.	.	8aa\J)	.
=8	=8	=8	=8	=8	=8	=8	=8
1r	.	(>2b^<\	.	1r	.	(>8gg#\L	.
.	.	.	.	.	.	8ee\	.
.	.	.	.	.	.	8ff#\	.
.	.	.	.	.	.	8gg#\J)	.
.	.	4a\)	.	.	.	(>8aa'>\L	.
.	.	.	.	.	.	8ee'>\J	.
.	.	4r	.	.	.	4a'>\)	.
=9	=9	=9	=9	=9	=9	=9	=9
8r	.	1ryy	.	(>2a/	p	1r	.
!	!LO:DY:b:rj	!	!	!	!	!	!
(>8c#\L	p	.	.	.	.	.	.
!	!	!	!	!LO:TX:i:b:t=espreſsivo	!	!	!
8A\	.	.	.	.	.	.	.
8F#\J	.	.	.	.	.	.	.
8E#X^<\L	.	.	.	4g#/	.	.	.
8c#\	.	.	.	.	.	.	.
8F#^<\	.	.	.	4f#/)	.	.	.
8c#\J)	.	.	.	.	.	.	.
=10	=10	=10	=10	=10	=10	=10	=10
(>8G#^<\L	.	1ryy	.	(<4e#X/	.	1r	.
8c#\	.	.	.	.	.	.	.
8A^<\	.	.	.	4f#/	.	.	.
8c#\J	.	.	.	.	.	.	.
8B\L	.	.	.	2g#/)	.	.	.
8c#\	.	.	.	.	.	.	.
8d#X\	.	.	.	.	.	.	.
8e#X\J)	.	.	.	.	.	.	.
=11	=11	=11	=11	=11	=11	=11	=11
(>8f#\L	<	1ryy	.	(>4a\	<	1r	.
8c#\	.	.	.	.	.	.	.
8A\	.	.	.	4cc#\)	.	.	.
[>8F#\J	[	.	.	.	[	.	.
8F#\L])	.	.	.	2dd#X^<tt>\	.	.	.
(>8A\	>	.	.	.	.	.	.
8B\	.	.	.	.	.	.	.
8A\J)	]	.	.	.	.	.	.
.	.	.	.	16qqcc#/LL	.	.	.
.	.	.	.	16qqdd#/JJ	.	.	.
=12	=12	=12	=12	=12	=12	=12	=12
(>8G#\L	.	1ryy	.	(>2ee^<\	.	1r	.
8B\	>	.	.	.	.	.	.
8e\	.	.	.	.	.	.	.
8d#X\J)	.	.	.	.	.	.	.
(>8dn\L	.	.	.	4e/)	.	.	.
8c#\	]	.	.	.	.	.	.
8d\	.	.	.	4r	.	.	.
8B\J)	.	.	.	.	.	.	.
!!LO:LB:g=original
=13	=13	=13	=13	=13	=13	=13	=13
!	!	!	!	!LO:TX:i:b:t=dol&colon;	!	!	!
8r	.	1ryy	.	(>2e/	.	1r	.
!	!LO:DY:b:rj	!	!	!	!	!	!
(>8c#\L	p	.	.	.	.	.	.
8B\	.	.	.	.	.	.	.
8A\J	.	.	.	.	.	.	.
8G#\L	.	.	.	4f#/	.	.	.
8F#\	.	.	.	.	.	.	.
8E\	.	.	.	4g#/)	.	.	.
8D\J)	.	.	.	.	.	.	.
=14	=14	=14	=14	=14	=14	=14	=14
(>8C#\L	.	1ryy	.	(>4a\	<	1r	.
8A\	.	.	.	.	.	.	.
8G#\	.	.	.	4b\	.	.	.
8E\J	.	.	.	.	.	.	.
8A\L	.	.	.	2cc#\)	[[	.	.
8e\	.	.	.	.	.	.	.
8c#\	.	.	.	.	.	.	.
8A\J)	.	.	.	.	.	.	.
=15	=15	=15	=15	=15	=15	=15	=15
(>8F#\L	.	1ryy	.	(>2dd\	>	1r	.
8A\	.	.	.	.	.	.	.
8G#\	.	.	.	.	.	.	.
8B\J	.	.	.	.	.	.	.
8A\L	.	.	.	4cc#\	.	.	.
8B\	.	.	.	.	.	.	.
8c#\	.	.	.	4a\)	]]	.	.
8A\J)	.	.	.	.	.	.	.
=16	=16	=16	=16	=16	=16	=16	=16
(>8G#\L	.	1ryy	.	(>2b^<\	.	1r	.
8E\	.	.	.	.	.	.	.
8F#\	.	.	.	.	.	.	.
8G#\J)	.	.	.	.	.	.	.
(>8A'>\L	.	.	.	4a\)	.	.	.
8E'>\J	.	.	.	.	.	.	.
4AA'</)	.	.	.	4r	.	.	.
=17	=17	=17	=17	=17	=17	=17	=17
1ryy	.	(>2a\	p	1ryy	.	8r	.
!	!	!LO:TX:i:b:t=espreſsivo	!	!	!	!	!LO:DY:b:rj
.	.	.	.	.	.	(>8ccc#\L	p
.	.	.	.	.	.	8aa\	.
.	.	.	.	.	.	8ff#\J	.
.	.	4g#\	.	.	.	8ee#X^<\L	.
.	.	.	.	.	.	8ccc#\	.
.	.	4f#\)	.	.	.	8ff#^<\	.
.	.	.	.	.	.	8ccc#\J)	.
=18	=18	=18	=18	=18	=18	=18	=18
1ryy	.	(>4e#X\	.	1ryy	.	(>8gg#\L	.
.	.	.	.	.	.	8ccc#^<\	.
.	.	4f#\	.	.	.	8aa\	.
.	.	.	.	.	.	8ccc#^<\J	.
.	.	2g#\)	.	.	.	8bb\L	.
.	.	.	.	.	.	8ccc#\	.
.	.	.	.	.	.	8ddd#X\	.
.	.	.	.	.	.	8eee#X\J)	.
!!LO:LB:g=original
=19	=19	=19	=19	=19	=19	=19	=19
1ryy	.	(>4a\	<	1ryy	.	(>8fff#\L	<
.	.	.	.	.	.	8ccc#\	.
.	.	4cc#\	.	.	.	8aa\	.
.	.	.	[	.	.	[>8ff#\J)	[
.	.	2dd#Xtt\)	f >	.	.	8ff#\L]	>
.	.	.	.	.	.	(>8aa\	.
.	.	.	.	.	.	8bb\	.
.	.	.	]	.	.	8aa\J)	]
.	.	(<16qqcc#/LL	.	.	.	.	.
.	.	16qqdd#/JJ)	.	.	.	.	.
=20	=20	=20	=20	=20	=20	=20	=20
1ryy	.	(>2ee^<\	.	1ryy	.	(>8gg#\L	.
.	.	.	.	.	.	8bb\	>
.	.	.	.	.	.	8eee\	.
.	.	.	.	.	.	8ddd#X\J)	.
.	.	4e\)	.	.	.	(>8dddn\L	]
.	.	.	.	.	.	8ccc#\	.
.	.	4r	.	.	.	8ddd\	.
.	.	.	.	.	.	8bb\J)	.
=21	=21	=21	=21	=21	=21	=21	=21
1ryy	.	(>2e\	p	1ryy	.	8r	.
.	.	.	.	.	.	(>8ccc#\L	p
!	!	!LO:TX:i:b:t=dol.	!	!	!	!	!
.	.	.	.	.	.	8bb\	.
.	.	.	.	.	.	8aa\J	.
.	.	4f#\	.	.	.	8gg#\L	.
.	.	.	.	.	.	8ff#\	.
.	.	4g#\)	.	.	.	8ee\	.
.	.	.	.	.	.	8dd\J)	.
=22	=22	=22	=22	=22	=22	=22	=22
1ryy	.	(>4a\	<	1ryy	.	(>8cc#\L	<
.	.	.	.	.	.	8aa\	.
.	.	4b\	.	.	.	8gg#\	.
.	.	.	.	.	.	8ee\J)	.
.	.	2cc#\)	[[	.	.	(>8aa\L	.
.	.	.	.	.	.	8eee\	[
.	.	.	.	.	.	8ccc#\	.
.	.	.	.	.	.	8aa\J)	.
=23	=23	=23	=23	=23	=23	=23	=23
1ryy	.	(>2dd\	>	1ryy	.	(>8ff#\L	>
.	.	.	.	.	.	8aa\	.
.	.	.	.	.	.	8gg#\	.
.	.	.	.	.	.	8bb\J	.
.	.	4cc#\	.	.	.	8aa\L	.
.	.	.	.	.	.	8bb\	.
.	.	4a\)	]]	.	.	8ccc#\	]
.	.	.	.	.	.	8aa\J)	.
=24	=24	=24	=24	=24	=24	=24	=24
1ryy	.	(>2b^<\	.	1ryy	.	(>8gg#\L	.
.	.	.	.	.	.	8ee\	.
.	.	.	.	.	.	8ff#\	.
.	.	.	.	.	.	8gg#\J)	.
.	.	4a\)	.	.	.	(>8aa'>\L	.
.	.	.	.	.	.	8ee'>\J	.
.	.	4r	.	.	.	4a'>\)	.
==	==	==	==	==	==	==	==
*-	*-	*-	*-	*-	*-	*-	*-
!!!system-decoration: [(s1,s2,s3,s4)]
!!!RDF**kern: > = above
!!!RDF**kern: < = below
!!!ENC: Andrzej Gręziak
!!!END: 2021-04-06
!!!EED: Antoni Szymański
!!!EST: 2021-04-12
